X:15586
T:Sleepy Moggy. JB.62
T:Jenny's Chickens,aka. JB.62
M:2/2
L:1/8
Q:200
S:James Biggins MS, Leeds, 1779.
R:Reel
O:England
A:Yorkshire
N:Jenny's Chickens in Ireland.
Z:vmp.Nick Barber & Chris Partington
K:D major
f2Bd fBde|f2Ba eAcf|f2Ba  fBde|fgaf eAce:|!
|:fBdB fBde|fBdB eAce|fBdB fBde|fgaf eAce:|]
W:VersionThis one is Vickers.
